public/showcase/resources/images/home/mercedes.svg

<svg height="38" viewBox="0 0 37 38" width="37" xmlns="http://www.w3.org/2000/svg" xmlns:xlink="http://www.w3.org/1999/xlink"><mask id="a" fill="#fff"><path d="m36.8206897 37.7183929v-37.7183929h-36.82003453v37.7183929z" fill="none"/></mask><path d="m36.0364483 15.66075c-.0406207-.0515714-.0668276-.1262143-.0995862-.2171429-1.3457242-4.2953571-2.4909655-5.98364281-4.7028276-8.4943571-2.9102759-3.31007143-7.6615862-5.86421429-12.7168966-5.871-9.66379307 0-17.50227583 8.12385714-17.50227583 18.1300714 0 2.9789286.62503448 5.5452857 1.12689655 6.8372857.59358621 1.4969286 1.61172414 3.5122858 1.66282759 3.6045715.04586207.1045.05241379.1479285.05503448.2388571-.07206897-.057-.1022069-.1031428-.16510345-.1995-.29351724-.4397143-1.4937931-2.6803571-1.86855172-3.6575-.81110345-2.1307143-1.41386207-4.4527857-1.41386207-6.8915714 0-10.31564287 8.06255172-18.68514287 18.02903445-18.68514287 8.8998621 0 16.0805518 6.40571428 17.5953104 14.98149997.0052414.0800715.0288276.1506429 0 .2239286zm-32.72717244 12.2427857c-.61062069-1.3082857-1.25268965-3.1499286-1.51868965-4.6075-.00393104-.0855-.01703449-.1533571.00786207-.2293571.04717241.0583571.06682758.1235.10351724.2239285.41931034 1.3381429.77965517 2.5378572 1.7335862 4.3455715zm.33413793-.1669286 12.89510341-9.6045-1.1033103-.6500714-11.48648276 9.8935714c-1.292-2.4238571-2.18827586-5.5317142-2.18827586-8.4889285 0-9.36835717 7.19772413-16.95071431 16.31772412-17.00907146l-2.352069 15.14842856 1.098069.6609286 1.478069-15.80935716c.0262069-.19814285.1546207-.19814285.1546207 0l.0891034 16.67114286 2.618069-1.5932857-2.5053793-15.08057144c8.9601379.24971428 16.3884827 7.73164285 16.3884827 16.98192854 0 2.9816429-.8753103 6.0949286-2.1948276 8.5350715l-11.476-9.9030715-1.105931.6541429 12.3382069 9.2665714c.2974483.2171429.2057241.3175714-.1126896.1357143l-13.8542759-8.2758571v3.1010714l13.8883448 5.4950714c-2.9089655 4.9155714-8.1634483 8.0614286-14.1726896 8.0614286-6.0210345 0-11.18903452-3.1417857-14.10193107-8.0668572l13.91455177-5.4991428v-3.1010714l-14.40593108 8.6192142c-.34724138.1940715-.43634483.0882143-.12055173-.1425zm14.76103451 9.2652143c-6.916 0-12.34213796-3.724-14.92613796-8.8431428l.3944138-.152c.67089655 1.1372857 1.55013793 2.1334285 2.72944827 3.4810714 1.45317242 1.6557143 6.04724139 4.8463571 11.79441379 4.8463571 6.1232414.0013572 11.5008966-3.287 14.5186207-8.3111428.231931-.0665.307931-.1723572.228-.3813572 1.3824138-2.5215714 2.3206207-5.6891428 2.3206207-8.7847857 0-1.9515714-.2751724-3.5353571-.7141379-4.9535714-.3262759-1.0680714-.7848966-2.1307143-.9866897-2.5500714-.0589655-.1004286-.0628966-.1533572-.0655172-.2442857.0720689.0624285.1087586.1045.1651034.2062857.2673104.5075714.8635172 1.7439285 1.143931 2.5487143.3786897 1.0789285 1.0587587 2.5663571 1.0587587 4.9929285 0 9.9247857-7.8450345 18.1504286-17.6608276 18.145zm0-37.00249997c-10.16041382-.00407143-18.40379313 8.44142857-18.40379313 18.85749997 0 10.4133572 8.23682759 18.8588572 18.40379313 18.8615715 10.1708965 0 18.4168965-8.4427858 18.4168965-18.8615715 0-10.40928569-8.2433793-18.85749997-18.4168965-18.85749997z" fill="#fff" fill-rule="evenodd" mask="url(#a)" transform=""/></svg>

<?xml version="1.0" encoding="UTF-8"?>
<svg width="37px" height="38px" viewBox="0 0 37 38" version="1.1" xmlns="http://www.w3.org/2000/svg" xmlns:xlink="http://www.w3.org/1999/xlink">
    <!-- Generator: sketchtool 45.2 (43514) - http://www.bohemiancoding.com/sketch -->
    <title>1E0AA723-B841-4F08-8E4E-D1E1D171AF76</title>
    <desc>Created with sketchtool.</desc>
    <defs>
        <polygon id="path-1" points="36.8206897 37.7183929 36.8206897 0 0.000655172414 0 0.000655172414 37.7183929"></polygon>
    </defs>
    <g id="Page-1" stroke="none" stroke-width="1" fill="none" fill-rule="evenodd">
        <g id="PrimeReact-Showcase---Homepage" transform="translate(-855.000000, -1118.000000)">
            <g id="homepage" transform="translate(301.000000, 70.000000)">
                <g id="brands" transform="translate(0.000000, 1019.000000)">
                    <g transform="translate(109.000000, 27.000000)" id="mercedes">
                        <g transform="translate(445.000000, 2.000000)">
                            <mask id="mask-2" fill="white">
                                <use xlink:href="#path-1"></use>
                            </mask>
                            <g id="Clip-2"></g>
                            <path d="M36.0364483,15.66075 C35.9958276,15.6091786 35.9696207,15.5345357 35.9368621,15.4436071 C34.5911379,11.14825 33.4458966,9.45996429 31.2340345,6.94925 C28.3237586,3.63917857 23.5724483,1.08503571 18.5171379,1.07825 C8.85334483,1.07825 1.01486207,9.20210714 1.01486207,19.2083214 C1.01486207,22.18725 1.63989655,24.7536071 2.14175862,26.0456071 C2.73534483,27.5425357 3.75348276,29.5578929 3.80458621,29.6501786 C3.85044828,29.7546786 3.857,29.7981071 3.85962069,29.8890357 C3.78755172,29.8320357 3.75741379,29.7858929 3.69451724,29.6895357 C3.401,29.2498214 2.20072414,27.0091786 1.82596552,26.0320357 C1.01486207,23.9013214 0.412103448,21.57925 0.412103448,19.1404643 C0.412103448,8.82482143 8.47465517,0.455321429 18.4411379,0.455321429 C27.341,0.455321429 34.5216897,6.86103571 36.0364483,15.4368214 C36.0416897,15.5168929 36.0652759,15.5874643 36.0364483,15.66075 L36.0364483,15.66075 Z M3.30927586,27.9035357 C2.69865517,26.59525 2.05658621,24.7536071 1.79058621,23.2960357 C1.78665517,23.2105357 1.77355172,23.1426786 1.79844828,23.0666786 C1.84562069,23.1250357 1.86527586,23.1901786 1.90196552,23.2906071 C2.32127586,24.62875 2.68162069,25.8284643 3.63555172,27.6361786 L3.30927586,27.9035357 Z M3.64341379,27.7366071 L16.5385172,18.1321071 L15.4352069,17.4820357 L3.94872414,27.3756071 C2.65672414,24.95175 1.76044828,21.8438929 1.76044828,18.8866786 C1.76044828,9.51832143 8.95817241,1.93596429 18.0781724,1.87760714 L15.7261034,17.0260357 L16.8241724,17.6869643 L18.3022414,1.87760714 C18.3284483,1.67946429 18.4568621,1.67946429 18.4568621,1.87760714 L18.5459655,18.54875 L21.1640345,16.9554643 L18.6586552,1.87489286 C27.6187931,2.12460714 35.0471379,9.60653571 35.0471379,18.8568214 C35.0471379,21.8384643 34.1718276,24.95175 32.8523103,27.3918929 L21.3763103,17.4888214 L20.2703793,18.1429643 L32.6085862,27.4095357 C32.9060345,27.6266786 32.8143103,27.7271071 32.4958966,27.54525 L18.6416207,19.2693929 L18.6416207,22.3704643 L32.5299655,27.8655357 C29.621,32.7811071 24.3665172,35.9269643 18.3572759,35.9269643 C12.3362414,35.9269643 7.16824138,32.7851786 4.25534483,27.8601071 L18.1698966,22.3609643 L18.1698966,19.2598929 L3.76396552,27.8791071 C3.41672414,28.0731786 3.32762069,27.9673214 3.64341379,27.7366071 L3.64341379,27.7366071 Z M18.4044483,37.0018214 C11.4884483,37.0018214 6.06231034,33.2778214 3.47831034,28.1586786 L3.87272414,28.0066786 C4.54362069,29.1439643 5.42286207,30.1401071 6.60217241,31.48775 C8.05534483,33.1434643 12.6494138,36.3341071 18.3965862,36.3341071 C24.5198276,36.3354643 29.8974828,33.0471071 32.9152069,28.0229643 C33.1471379,27.9564643 33.2231379,27.8506071 33.1432069,27.6416071 C34.5256207,25.1200357 35.4638276,21.9524643 35.4638276,18.8568214 C35.4638276,16.90525 35.1886552,15.3214643 34.7496897,13.90325 C34.4234138,12.8351786 33.9647931,11.7725357 33.763,11.3531786 C33.7040345,11.25275 33.7001034,11.1998214 33.6974828,11.1088929 C33.7695517,11.1713214 33.8062414,11.2133929 33.8625862,11.3151786 C34.1298966,11.82275 34.7261034,13.0591071 35.0065172,13.8638929 C35.3852069,14.9428214 36.0652759,16.43025 36.0652759,18.8568214 C36.0652759,28.7816071 28.2202414,37.00725 18.4044483,37.0018214 L18.4044483,37.0018214 Z M18.4044483,-0.000678571429 C8.24403448,-0.00475 0.000655172414,8.44075 0.000655172414,18.8568214 C0.000655172414,29.2701786 8.23748276,37.7156786 18.4044483,37.7183929 C28.5753448,37.7183929 36.8213448,29.2756071 36.8213448,18.8568214 C36.8213448,8.44753571 28.5779655,-0.000678571429 18.4044483,-0.000678571429 L18.4044483,-0.000678571429 Z" id="Fill-1" fill="#FFFFFF" mask="url(#mask-2)"></path>
                        </g>
                    </g>
                </g>
            </g>
        </g>
    </g>
</svg>
